React/src/assets/images/frontend/css.svg

<svg width="130" height="130" viewBox="0 0 130 130" fill="none" xmlns="http://www.w3.org/2000/svg">
<path d="M27.0833 16.25L23.5625 34.3417H97.175L94.7917 46.0417H21.2333L17.6583 64.0792H91.2708L87.1542 84.7167L57.4708 94.5208L31.7417 84.7167L33.5292 75.8333H15.4375L11.1583 97.5L53.6792 113.75L102.7 97.5L109.2 64.8375L110.5 58.2833L118.842 16.25H27.0833V16.25Z" fill="#42A5F5"/>
</svg>

<svg width="130" height="130" fill="none" xmlns="http://www.w3.org/2000/svg"><path d="M27.083 16.25l-3.52 18.092h73.612l-2.383 11.7H21.233l-3.575 18.037h73.613l-4.117 20.638-29.683 9.804-25.73-9.804 1.788-8.884H15.437L11.159 97.5l42.521 16.25L102.7 97.5l6.5-32.662 1.3-6.555 8.342-42.033H27.083z" fill="#42A5F5"/></svg>
